X:146
T:Swallow's Nest
Z: id:dc-jig-122
M:6/8
L:1/8
K:E Dorian
F|GEE BEE|GFE BAG|FDD ADD|dcd AGF|!
GEE BEE|GFE B2c|dcd AGF|GEE E2:|!
A|Bcd e2f|e2f edc|Bcd e2f|edc d2A|!
Bcd e2f|e2f edc|dcd AGF|GEE E2:|!

